X: 5
T: The Roaring Barmaid
R: jig
M: 6/8
L: 1/8
K: Gmaj
|:G3 EGD|G3 EGD|G3 BGG|dGG B3|
G3 EGD|G3 EGD|G2B deg|deg edB|
G3 EGD|G3 EGD|G3 B3|dBG B3|
G3 EGD|G3 EGD|GAB deg|deg edB||
|:deg b3-|bab deg|b3 age|age deg|
b3 abg|agg bgg|agg egg|deg edB:||


Tune 91	Setting 12631

